epam-assets/icon-sources/18/social-network-pinterest.svg

<svg width="18" height="18" viewBox="0 0 18 18" fill="none" xmlns="http://www.w3.org/2000/svg">
<g id="18/social-network-pinterest">
<path id="icon" d="M9.20079 1.5C5.15278 1.5 3 4.13449 3 7.00712C3 8.33937 3.73298 10.0007 4.9063 10.5276C5.08447 10.6092 5.1814 10.5745 5.22109 10.4067C5.25617 10.2791 5.41034 9.66506 5.48511 9.37536C5.4984 9.33017 5.49959 9.2822 5.48856 9.23639C5.47753 9.19057 5.45467 9.14858 5.42234 9.11472C5.03277 8.6572 4.72352 7.82372 4.72352 7.04181C4.72352 5.03829 6.29195 3.09288 8.96077 3.09288C11.2686 3.09288 12.8832 4.61545 12.8832 6.79337C12.8832 9.25441 11.601 10.957 9.93469 10.957C9.01246 10.957 8.32564 10.222 8.5435 9.31254C8.8066 8.22968 9.32264 7.06525 9.32264 6.28428C9.32264 5.58394 8.93307 5.00453 8.13732 5.00453C7.19848 5.00453 6.43688 5.94864 6.43688 7.2162C6.43688 8.02155 6.71752 8.56532 6.71752 8.56532L5.6162 13.0871C5.32449 14.2918 5.6559 16.2429 5.68451 16.4107C5.70205 16.5035 5.80452 16.5326 5.86176 16.4566C5.95315 16.3347 7.0757 14.7081 7.39049 13.5324C7.50496 13.104 7.97484 11.3667 7.97484 11.3667C8.2841 11.9339 9.17678 12.4092 10.1276 12.4092C12.9562 12.4092 15 9.88444 15 6.75118C14.9898 3.74729 12.4586 1.5 9.20079 1.5Z" fill="#6C6F80"/>
</g>
</svg>

<svg xmlns="http://www.w3.org/2000/svg" width="18" height="18" fill="none" viewBox="0 0 18 18">
  <path fill="#6C6F80" d="M9.2 1.5C5.154 1.5 3 4.134 3 7.007c0 1.332.733 2.994 1.906 3.52.178.082.275.048.315-.12.035-.128.19-.742.264-1.032a.27.27 0 0 0-.063-.26c-.39-.458-.698-1.291-.698-2.073 0-2.004 1.568-3.95 4.237-3.95 2.308 0 3.922 1.523 3.922 3.701 0 2.461-1.282 4.164-2.948 4.164-.923 0-1.61-.735-1.392-1.644.264-1.083.78-2.248.78-3.029 0-.7-.39-1.28-1.186-1.28-.939 0-1.7.945-1.7 2.212 0 .806.28 1.35.28 1.35l-1.1 4.521c-.293 1.205.039 3.156.068 3.324.017.092.12.122.177.046.091-.122 1.214-1.749 1.528-2.925l.585-2.165c.31.567 1.202 1.042 2.153 1.042C12.956 12.41 15 9.884 15 6.751 14.99 3.747 12.459 1.5 9.2 1.5Z"/>
</svg>
